X: 5865
T: Callows, The
R: jig
M: 6/8
K: Adorian
|:c2A AcA|E2A ABc|B2G GFG|dBG GAB|
c2A AcA|EAA A2g|edc BAG|EAA A2B:|
|:c2e ede|c2e edc|B2G GFG|~B3 GAB|
[1 c2e ede|cd/e/f ~g3|edc BAG|EAA A2B:|
[2 cBc dB/c/d|efg ~a3|edc BAG|EAA A3||

